%
O1234 (SAMPLE TURNING PROGRAM - PROVEN PROGRAM ENGINE TEST)
(MATERIAL: NOT SPECIFIED)
(MACHINE: SAMPLE LATHE)
(DATE: 2025-01-15)
(-------------------------------------------)
(TOOL 01 - DNMG 432 ROUGHING INSERT)
T0101
G97 S450 M03
G00 X3.5 Z0.1 M08
G71 U0.100 R0.050
G71 P100 Q200 F0.015
N100 G00 X0.0
G01 Z0.0
G01 X1.500
G01 Z-2.0 F0.015
G01 X3.0 Z-3.0
G01 Z-6.0
N200 G01 X3.5
G00 X10.0 Z2.0
(-------------------------------------------)
(TOOL 02 - CCMT 32.51 FINISH INSERT)
T0202
G96 S600 M03
G00 X3.5 Z0.1
G70 P100 Q200 F0.006
G00 X10.0 Z2.0
(-------------------------------------------)
(TOOL 03 - GROOVE TOOL 0.125)
T0303
G97 S1200 M03
G00 X2.0 Z-3.5 M08
G01 X1.5 F0.004
G04 X0.5
G01 X2.0 F0.015
G00 X10.0 Z2.0
(-------------------------------------------)
(TOOL 04 - 3/8 DRILL)
T0404
G97 S800 M03
G00 Z0.1
G74 R0.050
G74 Z-2.5 F0.008
G00 Z2.0
M30
%
